X:7839
T:Venherka
O:england
H:H. Tantsyur
S:A. Humenyuk
Q:72
M:2/4
L:1/16
A:village of Zyatkivtsi, Vinnyts'kiy
K:E
E2E2 EFGA | B2B2B2 z2 | e2G2 BAGG | A2F2 F4 |\
B,CDE FGAB | c2c2c2 z2 | B2A2 GGAF | E2E2E2 z2 |:
e3d cBAG | F2F2F2 z2 | f3e dcBA | G2G2G2 z2 | \
B,CDE FGAB | c2c2c2 z2 | B2A2 GGAF | E2E2E2 z2 :|


